svg/notification.svg

<svg width="280" height="280" viewBox="0 0 280 280" fill="none" xmlns="http://www.w3.org/2000/svg">
<path d="M73.0861 135.559C75.3139 114.538 72.6995 64.9642 128.259 58.1983C131.215 57.6946 134.536 57.4284 138.255 57.4284C138.82 57.4284 139.38 57.4321 139.935 57.4395C140.49 57.4321 141.05 57.4284 141.614 57.4284C145.333 57.4284 148.655 57.6946 151.611 58.1983C207.17 64.9642 204.556 114.538 206.784 135.559C209.169 158.065 211.449 167.299 216.699 177.065C221.948 186.831 233.029 207.585 226.03 207.585H53.8394C46.8406 207.585 57.922 186.831 63.1711 177.065C68.4202 167.299 70.7008 158.065 73.0861 135.559Z" fill="black"/>
<path fill-rule="evenodd" clip-rule="evenodd" d="M123.811 54.1864C125.194 46.1602 132.19 40.0542 140.611 40.0542C149.113 40.0542 156.162 46.2784 157.449 54.4189C155.842 54.1374 154.185 53.8918 152.477 53.6838C149.302 53.1428 145.734 52.8568 141.739 52.8568C141.133 52.8568 140.531 52.8608 139.935 52.8687C139.338 52.8608 138.737 52.8568 138.131 52.8568C134.136 52.8568 130.568 53.1428 127.393 53.6838C126.173 53.8324 124.979 54.0001 123.811 54.1864Z" fill="black"/>
<path fill-rule="evenodd" clip-rule="evenodd" d="M164.283 220.715C163.289 231.743 154.021 240.385 142.733 240.385C131.446 240.385 122.178 231.743 121.184 220.715H164.283Z" fill="black"/>
</svg>

<svg width="280" height="280" viewBox="0 0 280 280" xmlns="http://www.w3.org/2000/svg">
    <g fill="#000" fill-rule="evenodd">
        <path d="M221.776 197.652c-1.99-5.002-4.589-10.173-9.041-18.456-5.638-10.49-8.01-20.355-10.426-43.163-.159-1.492-.295-3.108-.47-5.46-1.133-15.258-1.698-20.193-3.796-28.257-5.886-22.623-19.76-36.336-46.976-39.65-2.95-.498-6.028-.738-9.453-.738-.543 0-1.083.004-1.62.011-.655-.007-1.195-.01-1.739-.01-3.425 0-6.503.239-9.24.705-27.428 3.346-41.302 17.059-47.189 39.682-2.098 8.064-2.663 13-3.796 28.257-.175 2.352-.31 3.968-.469 5.46-2.417 22.808-4.788 32.673-10.426 43.163-4.453 8.283-7.05 13.454-9.042 18.456-.877 2.202-1.478 4.052-1.78 5.433h167.243c-.302-1.381-.903-3.231-1.78-5.433zm-15.023-97.602c2.286 8.787 2.886 14.02 4.062 29.856.168 2.266.298 3.802.443 5.178 2.305 21.75 4.433 30.602 9.404 39.85 4.618 8.592 7.314 13.958 9.476 19.389 1.541 3.87 2.45 7.021 2.615 9.574.294 4.503-1.946 8.188-6.723 8.188H53.84c-4.777 0-7.017-3.685-6.724-8.188.166-2.553 1.074-5.703 2.615-9.574 2.163-5.431 4.859-10.797 9.476-19.388 4.971-9.25 7.1-18.102 9.404-39.85.146-1.377.276-2.913.444-5.179 1.176-15.836 1.775-21.07 4.061-29.856 6.76-25.982 23.443-42.492 54.494-46.306 3.23-.543 6.775-.816 10.645-.816.564 0 1.123.004 1.68.011.556-.007 1.116-.01 1.68-.01 3.87 0 7.415.272 10.645.815 31.051 3.814 47.733 20.324 54.493 46.306z" fill-rule="nonzero"/>
        <path d="M123.811 54.186c1.383-8.026 8.379-14.132 16.8-14.132 8.502 0 15.55 6.224 16.838 14.365a96.262 96.262 0 0 0-4.972-.735c-3.175-.541-6.743-.827-10.738-.827-.606 0-1.208.004-1.804.012-.597-.008-1.198-.012-1.804-.012-3.995 0-7.563.286-10.738.827-1.22.148-2.414.316-3.582.502zM164.283 220.715c-.994 11.028-10.262 19.67-21.55 19.67-11.287 0-20.555-8.642-21.55-19.67h43.1z"/>
    </g>
</svg>
